symbols-de/shields/motorway_3x1_z16.svg

<?xml version="1.0" encoding="UTF-8" standalone="no"?>
<svg
   xmlns:dc="http://purl.org/dc/elements/1.1/"
   xmlns:cc="http://creativecommons.org/ns#"
   xmlns:rdf="http://www.w3.org/1999/02/22-rdf-syntax-ns#"
   xmlns:svg="http://www.w3.org/2000/svg"
   xmlns="http://www.w3.org/2000/svg"
   xmlns:sodipodi="http://sodipodi.sourceforge.net/DTD/sodipodi-0.dtd"
   xmlns:inkscape="http://www.inkscape.org/namespaces/inkscape"
   width="100%"
   height="100%"
   viewBox="0 0 29.0 16.0"
   id="svg2"
   version="1.1"
   inkscape:version="0.91 r13725"
   sodipodi:docname="autobahn_3x1_z16.svg">
  <metadata
     id="metadata9">
    <rdf:RDF>
      <cc:Work
         rdf:about="">
        <dc:format>image/svg+xml</dc:format>
        <dc:type
           rdf:resource="http://purl.org/dc/dcmitype/StillImage" />
        <dc:title></dc:title>
      </cc:Work>
    </rdf:RDF>
  </metadata>
  <defs
     id="defs7" />
  <sodipodi:namedview
     pagecolor="#ffffff"
     bordercolor="#666666"
     borderopacity="1"
     objecttolerance="10"
     gridtolerance="10"
     guidetolerance="10"
     inkscape:pageopacity="0"
     inkscape:pageshadow="2"
     inkscape:window-width="1130"
     inkscape:window-height="709"
     id="namedview5"
     showgrid="false"
     inkscape:zoom="12.172414"
     inkscape:cx="14.5"
     inkscape:cy="8"
     inkscape:window-x="296"
     inkscape:window-y="74"
     inkscape:window-maximized="0"
     inkscape:current-layer="svg2" />
  <path
     d="m 0.5,7.999996 0,-5.181849 Q 0.5,2.545416 0.9516129,2.409055 L 14.198926,0.5135952 q 0,-0.013596 0.301074,-0.013596 0.301074,0 0.301074,0.013596 L 28.048388,2.409055 q 0.451613,0.136361 0.451613,0.409092 l 0,10.363701 q 0,0.272731 -0.451613,0.409092 L 14.801074,15.4864 q 0,0.0136 -0.301074,0.0136 -0.301074,0 -0.301074,-0.0136 L 0.951613,13.59094 Q 0.5,13.454579 0.5,13.181848 Z"
     id="path6"
     style="fill:#365eaf;fill-opacity:1;stroke:#0528a2;stroke-width:1;stroke-miterlimit:4;stroke-dasharray:none;stroke-opacity:1"
     inkscape:connector-curvature="0" />
</svg>

<?xml version="1.0" encoding="UTF-8"?>
<svg xmlns="http://www.w3.org/2000/svg" xmlns:xlink="http://www.w3.org/1999/xlink" width="28pt" height="20pt" viewBox="0 0 28 20" version="1.1">
<g id="surface1">
<path style="fill-rule:nonzero;fill:rgb(21.176471%,36.862745%,68.627451%);fill-opacity:1;stroke-width:1;stroke-linecap:butt;stroke-linejoin:miter;stroke:rgb(1.960784%,15.686275%,63.529412%);stroke-opacity:1;stroke-miterlimit:4;" d="M 0.501674 8 L 0.501674 2.81875 C 0.501674 2.6375 0.651367 2.5 0.950753 2.409375 L 14.200614 0.5125 C 14.200614 0.503125 14.297712 0.5 14.5 0.5 C 14.702288 0.5 14.799386 0.503125 14.799386 0.5125 L 28.049247 2.409375 C 28.348633 2.5 28.498326 2.6375 28.498326 2.81875 L 28.498326 13.18125 C 28.498326 13.3625 28.348633 13.5 28.049247 13.590625 L 14.799386 15.4875 C 14.799386 15.496875 14.702288 15.5 14.5 15.5 C 14.297712 15.5 14.200614 15.496875 14.200614 15.4875 L 0.950753 13.590625 C 0.651367 13.5 0.501674 13.3625 0.501674 13.18125 Z M 0.501674 8 " transform="matrix(0.965517,0,0,1.25,0,0)"/>
</g>
</svg>
